X: 51
T:The Cobbler
% Nottingham Music Database
S:Trad, arr Phil Rowe
M:6/8
K:D
D|"D"DFA "G"B2A|"D"def "A7"gfe|"D"fdf "A7"ecA|"G"BGB "D"AFD|
"D"DFA "G"B2A|"D"def "A7"gfe|"D"fdf "A7"ecA|"D"Add d2::
g|"D"fad fad|faa agf|"C"eg=c eg=c|efg gfe|
"D"fef "G"gfg|"D"agf "A7"efg|"D"fed "Am"=cAG|"D"Add d2:|<end>
<start>
